svg/u1f925.svg

<svg viewBox="0 0 128 128" xmlns="http://www.w3.org/2000/svg">
  <g id="gold">
    <radialGradient id="face_1_" cx="63.6" cy="67.1" gradientTransform="matrix(1 0 0 -1 0 130)" gradientUnits="userSpaceOnUse" r="56.9597">
      <stop offset="0.5" stop-color="#FDE030"/>
      <stop offset="0.92" stop-color="#F7C02B"/>
      <stop offset="1" stop-color="#F4A223"/>
    </radialGradient>
    <path id="face" d="M63.6,118.8c-27.9,0-58-17.5-58-55.9S35.7,7,63.6,7c15.5,0,29.8,5.1,40.4,14.4 c11.5,10.2,17.6,24.6,17.6,41.5s-6.1,31.2-17.6,41.4C93.4,113.6,79,118.8,63.6,118.8z" fill="url(#face_1_)"/>
    <path d="M111.49,29.67c5.33,8.6,8.11,18.84,8.11,30.23c0,16.9-6.1,31.2-17.6,41.4 c-10.6,9.3-25,14.5-40.4,14.5c-18.06,0-37-7.35-48.18-22.94c10.76,17.66,31,25.94,50.18,25.94c15.4,0,29.8-5.2,40.4-14.5 c11.5-10.2,17.6-24.5,17.6-41.4C121.6,50.16,118.13,38.84,111.49,29.67z" fill="#EB8F00"/>
  </g>
  <g id="faces">
    <g id="lying-face">
      <g id="prop">
        <linearGradient id="SVGID_1_" gradientTransform="matrix(1 0 0 -1 0 130)" gradientUnits="userSpaceOnUse" x1="97.85" x2="97.85" y1="55.4" y2="72.9">
          <stop offset="0.02" stop-color="#FCC21B"/>
          <stop offset="0.7" stop-color="#FDE030"/>
          <stop offset="1" stop-color="#F4A223"/>
        </linearGradient>
        <path d="M126.22,60.82c-0.31-0.45-0.67-0.87-1.06-1.25c-0.19-0.19-0.4-0.37-0.61-0.54 c-1.54-1.25-3.47-1.93-5.45-1.93H70c-1.1,0-2,0.9-2,2v13.5c0,0.27,0.05,0.53,0.16,0.78c0.05,0.12,0.11,0.23,0.18,0.34 c0.15,0.21,0.33,0.39,0.54,0.54c0.33,0.22,0.72,0.34,1.12,0.34h48.8c0.89,0,1.78-0.13,2.64-0.39c0.55-0.17,1.09-0.39,1.6-0.66 c2.85-1.49,4.64-4.43,4.66-7.65v-0.4C127.7,63.83,127.18,62.19,126.22,60.82z" fill="url(#SVGID_1_)"/>
        <linearGradient id="SVGID_2_" gradientTransform="matrix(1 0 0 -1 0 130)" gradientUnits="userSpaceOnUse" x1="63.6" x2="101.1" y1="64.15" y2="64.15">
          <stop offset="0.4" stop-color="#FDE030"/>
          <stop offset="1" stop-color="#F4A223" stop-opacity="0"/>
        </linearGradient>
        <rect fill="url(#SVGID_2_)" height="17.5" width="37.5" x="63.6" y="57.1"/>
        <linearGradient id="SVGID_3_" gradientTransform="matrix(1 0 0 -1 0 130)" gradientUnits="userSpaceOnUse" x1="110.22" x2="127.7" y1="64.15" y2="64.15">
          <stop offset="0" stop-color="#F4A223" stop-opacity="0"/>
          <stop offset="0.6" stop-color="#FCC21B"/>
        </linearGradient>
        <path d="M110.22,57.1h8.88c1.98-0.01,3.9,0.66,5.45,1.9c0.21,0.17,0.42,0.35,0.61,0.54 c0.39,0.38,0.75,0.8,1.06,1.25c0.96,1.37,1.48,3.01,1.48,4.68v0.4c-0.01,3.24-1.83,6.19-4.7,7.68c-0.51,0.27-1.05,0.49-1.6,0.66 c-0.86,0.26-1.75,0.39-2.64,0.39H111" fill="url(#SVGID_3_)"/>
      </g>
    </g>
  </g>
  <g id="facial_expressions">
    <g id="lying-face-2">
      <path id="mouth" d="M59.3,90.5c7.1-2.3,13.4-0.3,15.7,1.6c0.82,0.56,1.28,1.51,1.2,2.5 c-0.13,0.64-0.58,1.17-1.2,1.4c-0.22,0.08-0.46,0.12-0.7,0.1c-8.48,0.18-16.73,2.86-23.7,7.7c-0.2,0.1-0.4,0.3-0.6,0.3 c-0.63,0.22-1.33,0.07-1.8-0.4c-0.64-0.75-0.83-1.78-0.5-2.7C48.3,98.2,52.2,92.9,59.3,90.5z" fill="#422B0D"/>
      <g id="eyes">
        <g id="peepers">
          <path id="right-eye" d="M90.8,54.4c0-5.9-3.8-9.4-8-9.4s-8,3.5-8,9.4c0,0.91,0.1,1.81,0.3,2.7h15.4 C90.7,56.21,90.8,55.31,90.8,54.4z" fill="#422B0D"/>
          <path id="left-eye" d="M45.2,45c-4.2,0-8,3.5-8,9.4s3.8,9.4,8,9.4s8-3.5,8-9.4S49.4,45,45.2,45z" fill="#422B0D"/>
        </g>
      </g>
    </g>
    <g id="lying-face-3">
      <g id="prop-2">
        <path d="M72.63,74.05c9.79-0.52,19.59-0.8,29.39-1c4.9-0.12,9.8-0.14,14.7-0.21h1.81 c0.52-0.02,1.04-0.09,1.55-0.21c1.02-0.26,1.97-0.73,2.79-1.39c1.65-1.32,2.6-3.33,2.57-5.44c0.04-1.04-0.17-2.06-0.62-3 c-0.21-0.47-0.49-0.91-0.84-1.29l-0.5-0.59c-0.19-0.18-0.38-0.36-0.58-0.52c-0.81-0.68-1.76-1.16-2.79-1.4 c-0.52-0.11-1.04-0.17-1.57-0.17h-1.84c-4.89-0.13-9.79-0.21-14.69-0.38c-9.8-0.31-19.59-0.7-29.38-1.34 c9.8-0.41,19.6-0.57,29.4-0.63c4.89-0.06,9.79,0,14.69,0h1.84c2.13-0.02,4.2,0.69,5.87,2c0.27,0.22,0.54,0.45,0.79,0.69 l0.69,0.81c0.47,0.53,0.87,1.13,1.17,1.77c0.61,1.28,0.91,2.68,0.88,4.1c0.01,2.87-1.3,5.58-3.55,7.36 c-1.1,0.87-2.38,1.48-3.75,1.79c-0.68,0.17-1.38,0.26-2.08,0.27h-1.86c-4.9-0.07-9.8-0.09-14.7-0.21 C92.22,74.85,82.42,74.57,72.63,74.05z" fill="#EB8F00"/>
      </g>
    </g>
    <g id="eyebrows">
      <path d="M31.06,40.49c-1.65,1.51-4.26-0.35-2.88-2.32c3.15-4.23,7.8-7.1,13-8 c1.91-0.42,3.88-0.51,5.82-0.27c1.01,0.04,1.8,0.89,1.76,1.9c-0.04,1.01-0.89,1.8-1.9,1.76l0,0h-0.14 C40.87,34.04,35.35,36.48,31.06,40.49z" fill="#422B0D"/>
    </g>
    <g id="eyebrows-2">
      <path d="M94.75,34.35c1.54,1.62,4.27-0.05,3-2.11c-2.83-4.49-7.28-7.71-12.43-9 c-1.88-0.54-3.84-0.75-5.79-0.63c-1.01-0.03-1.86,0.76-1.89,1.77c-0.03,1.01,0.76,1.86,1.77,1.89h0.14 C85.39,27.15,90.75,30.01,94.75,34.35z" fill="#422B0D"/>
    </g>
  </g>
</svg>

<svg viewBox="0 0 128 128" xmlns="http://www.w3.org/2000/svg">
  <defs>
    <radialGradient id="face_1_" cx="63.6" cy="-62.9" gradientTransform="matrix(1 0 0 -1 0 0)" gradientUnits="userSpaceOnUse" r="56.9597">
      <stop offset="0.5" stop-color="#FDE030"/>
      <stop offset="0.92" stop-color="#F7C02B"/>
      <stop offset="1" stop-color="#F4A223"/>
    </radialGradient>
    <linearGradient id="SVGID_1_" gradientTransform="matrix(1 0 0 -1 0 0)" gradientUnits="userSpaceOnUse" x1="97.85" x2="97.85" y1="-74.6" y2="-57.1">
      <stop offset="0.02" stop-color="#FCC21B"/>
      <stop offset="0.7" stop-color="#FDE030"/>
      <stop offset="1" stop-color="#F4A223"/>
    </linearGradient>
    <linearGradient id="SVGID_2_" gradientTransform="matrix(1 0 0 -1 0 0)" gradientUnits="userSpaceOnUse" x1="63.6" x2="101.1" y1="-65.85" y2="-65.85">
      <stop offset="0.4" stop-color="#FDE030"/>
      <stop offset="1" stop-color="#F4A223" stop-opacity="0"/>
    </linearGradient>
    <linearGradient id="SVGID_3_" gradientTransform="matrix(1 0 0 -1 0 0)" gradientUnits="userSpaceOnUse" x1="110.22" x2="127.7" y1="-65.85" y2="-65.85">
      <stop offset="0" stop-color="#F4A223" stop-opacity="0"/>
      <stop offset="0.6" stop-color="#FCC21B"/>
    </linearGradient>
  </defs>
  <path id="face" d="M63.6,118.8 C35.7,118.8 5.6,101.3 5.6,62.9 C5.6,24.5 35.7,7 63.6,7 C79.1,7 93.4,12.1 104,21.4 C115.5,31.6 121.6,46 121.6,62.9 C121.6,79.8 115.5,94.1 104,104.3 C93.4,113.6 79,118.8 63.6,118.8 Z" fill="url(#face_1_)"/>
  <path d="M111.49,29.67 C116.82,38.27 119.6,48.51 119.6,59.9 C119.6,76.8 113.5,91.1 102,101.3 C91.4,110.6 77,115.8 61.6,115.8 C43.54,115.8 24.6,108.45 13.42,92.86 C24.18,110.52 44.42,118.8 63.6,118.8 C79,118.8 93.4,113.6 104,104.3 C115.5,94.1 121.6,79.8 121.6,62.9 C121.6,50.16 118.13,38.84 111.49,29.67 Z" fill="#EB8F00"/>
  <path d="M126.22,60.82 C125.91,60.37 125.55,59.95 125.16,59.57 C124.97,59.38 124.76,59.2 124.55,59.03 C123.01,57.78 121.08,57.1 119.1,57.1 L70,57.1 C68.9,57.1 68,58 68,59.1 L68,72.6 C68,72.87 68.05,73.13 68.16,73.38 C68.21,73.5 68.27,73.61 68.34,73.72 C68.49,73.93 68.67,74.11 68.88,74.26 C69.21,74.48 69.6,74.6 70,74.6 L118.8,74.6 C119.69,74.6 120.58,74.47 121.44,74.21 C121.99,74.04 122.53,73.82 123.04,73.55 C125.89,72.06 127.68,69.12 127.7,65.9 L127.7,65.5 C127.7,63.83 127.18,62.19 126.22,60.82 Z" fill="url(#SVGID_1_)"/>
  <path d="M63.6,57.1 L101.1,57.1 L101.1,74.6 L63.6,74.6 L63.6,57.1 Z" fill="url(#SVGID_2_)"/>
  <path d="M110.22,57.1 L119.1,57.1 C121.08,57.09 123,57.76 124.55,59 C124.76,59.17 124.97,59.35 125.16,59.54 C125.55,59.92 125.91,60.34 126.22,60.79 C127.18,62.16 127.7,63.8 127.7,65.47 L127.7,65.87 C127.69,69.11 125.87,72.06 123,73.55 C122.49,73.82 121.95,74.04 121.4,74.21 C120.54,74.47 119.65,74.6 118.76,74.6 L111,74.6" fill="url(#SVGID_3_)"/>
  <path id="mouth" d="M59.3,90.5 C66.4,88.2 72.7,90.2 75,92.1 C75.82,92.66 76.28,93.61 76.2,94.6 C76.07,95.24 75.62,95.77 75,96 C74.78,96.08 74.54,96.12 74.3,96.1 C65.82,96.28 57.57,98.96 50.6,103.8 C50.4,103.9 50.2,104.1 50,104.1 C49.37,104.32 48.67,104.17 48.2,103.7 C47.56,102.95 47.37,101.92 47.7,101 C48.3,98.2 52.2,92.9 59.3,90.5 Z" fill="#422B0D"/>
  <path id="right-eye" d="M90.8,54.4 C90.8,48.5 87,45 82.8,45 C78.6,45 74.8,48.5 74.8,54.4 C74.8,55.31 74.9,56.21 75.1,57.1 L90.5,57.1 C90.7,56.21 90.8,55.31 90.8,54.4 Z" fill="#422B0D"/>
  <path id="left-eye" d="M45.2,45 C41,45 37.2,48.5 37.2,54.4 C37.2,60.3 41,63.8 45.2,63.8 C49.4,63.8 53.2,60.3 53.2,54.4 C53.2,48.5 49.4,45 45.2,45 Z" fill="#422B0D"/>
  <path d="M72.63,74.05 C82.42,73.53 92.22,73.25 102.02,73.05 C106.92,72.93 111.82,72.91 116.72,72.84 L118.53,72.84 C119.05,72.82 119.57,72.75 120.08,72.63 C121.1,72.37 122.05,71.9 122.87,71.24 C124.52,69.92 125.47,67.91 125.44,65.8 C125.48,64.76 125.27,63.74 124.82,62.8 C124.61,62.33 124.33,61.89 123.98,61.51 L123.48,60.92 C123.29,60.74 123.1,60.56 122.9,60.4 C122.09,59.72 121.14,59.24 120.11,59 C119.59,58.89 119.07,58.83 118.54,58.83 L116.7,58.83 C111.81,58.7 106.91,58.62 102.01,58.45 C92.21,58.14 82.42,57.75 72.63,57.11 C82.43,56.7 92.23,56.54 102.03,56.48 C106.92,56.42 111.82,56.48 116.72,56.48 L118.56,56.48 C120.69,56.46 122.76,57.17 124.43,58.48 C124.7,58.7 124.97,58.93 125.22,59.17 L125.91,59.98 C126.38,60.51 126.78,61.11 127.08,61.75 C127.69,63.03 127.99,64.43 127.96,65.85 C127.97,68.72 126.66,71.43 124.41,73.21 C123.31,74.08 122.03,74.69 120.66,75 C119.98,75.17 119.28,75.26 118.58,75.27 L116.72,75.27 C111.82,75.2 106.92,75.18 102.02,75.06 C92.22,74.85 82.42,74.57 72.63,74.05 Z" fill="#EB8F00"/>
  <path d="M31.06,40.49 C29.41,42 26.8,40.14 28.18,38.17 C31.33,33.94 35.98,31.07 41.18,30.17 C43.09,29.75 45.06,29.66 47,29.9 C48.01,29.94 48.8,30.79 48.76,31.8 C48.72,32.81 47.87,33.6 46.86,33.56 L46.86,33.56 L46.72,33.56 C40.87,34.04 35.35,36.48 31.06,40.49 Z" fill="#422B0D"/>
  <path d="M94.75,34.35 C96.29,35.97 99.02,34.3 97.75,32.24 C94.92,27.75 90.47,24.53 85.32,23.24 C83.44,22.7 81.48,22.49 79.53,22.61 C78.52,22.58 77.67,23.37 77.64,24.38 C77.61,25.39 78.4,26.24 79.41,26.27 L79.55,26.27 C85.39,27.15 90.75,30.01 94.75,34.35 Z" fill="#422B0D"/>
</svg>
